!!!OTL: SCHON HAT SICH DUNKLE NACHT GESENKT
!!!ARE: Europa, Mitteleuropa, Deutschland
!!!SCT: F0149
!!!YEM: Copyright 1995, estate of Helmut Schaffrath.
**kern
*ICvox
*Ivox
*M6/4
*k[f#]
*e:
{4b
=1
2e
4e
2b
4b
=2
2a
4gn
2gn}
{4gn
=3
4f#
4d#
4B
4cn
4B
4d#
=4
2e
2.r}
{4gn
=5
4ddn
4b
4gn
4ddn
4b
4gn
=6
2ccn
4a
2f#}
{4dn
=7
2gn
4b
2a
4ddn
=8
2gn
2.r}
{4b
=9
2b
4f#
4gn
4f#
4e
=10
2.d#
2f#}
{4b
=11
2b
4f#
2gn
4a#
=12
2b
2.r}
{4b
=13
2ccn
4ccn
2ccn
4ccn
=14
2.b
2e}
{4a
=15
4gn
4a
4f#
4e
4f#
4d#
=16
1e
4r}
==
!!!AGN: Tageszeiten - Lied, Abend; Trauer
!!!ONB: ESAC (Essen Associative Code) Database: FINK
!!!AMT: compound duple
!!!AIN: vox
!!!EED: Helmut Schaffrath
!!!EEV: 1.0
*-
